public/icon/sale.svg

<svg width="16" height="18" viewBox="0 0 16 18" fill="none" xmlns="http://www.w3.org/2000/svg">
<path d="M13.9736 11.7899H5.59414C5.4551 11.7901 5.32012 11.7394 5.21137 11.6462C5.10262 11.5529 5.02656 11.4225 4.9957 11.2765L3.58476 4.6566C3.56412 4.55989 3.564 4.45943 3.5844 4.36267C3.6048 4.26591 3.6452 4.17535 3.70259 4.09773C3.75999 4.02011 3.8329 3.95742 3.91589 3.91434C3.99889 3.87126 4.08984 3.8489 4.18198 3.8489H15.3857C15.478 3.8487 15.5691 3.87092 15.6522 3.91391C15.7354 3.95691 15.8084 4.01956 15.866 4.09721C15.9235 4.17486 15.964 4.26549 15.9845 4.36234C16.0049 4.4592 16.0048 4.55979 15.9842 4.6566L14.5708 11.2765C14.54 11.4223 14.4641 11.5525 14.3556 11.6457C14.2471 11.739 14.1124 11.7898 13.9736 11.7899ZM6.08188 10.4701H13.4858L14.6161 5.16998H4.95117L6.08188 10.4701Z" fill="white"/>
<path d="M6.79333 17.6848C6.32893 17.6848 5.87496 17.5365 5.48883 17.2586C5.1027 16.9808 4.80175 16.5859 4.62403 16.1238C4.44632 15.6618 4.39982 15.1533 4.49042 14.6628C4.58102 14.1723 4.80465 13.7217 5.13302 13.3681C5.4614 13.0145 5.87978 12.7736 6.33525 12.6761C6.79072 12.5785 7.26283 12.6286 7.69188 12.82C8.12092 13.0114 8.48763 13.3355 8.74564 13.7513C9.00364 14.1671 9.14135 14.656 9.14135 15.1561C9.1407 15.8266 8.89311 16.4693 8.45291 16.9434C8.01271 17.4175 7.41586 17.6841 6.79333 17.6848ZM6.79333 13.9477C6.57129 13.9477 6.35424 14.0186 6.16963 14.1514C5.98502 14.2843 5.84114 14.4731 5.75619 14.6941C5.67124 14.915 5.64904 15.1581 5.69238 15.3926C5.73573 15.6271 5.84268 15.8425 5.99971 16.0116C6.15675 16.1806 6.3568 16.2957 6.57458 16.3423C6.79236 16.3889 7.01808 16.3649 7.22319 16.2733C7.4283 16.1818 7.60359 16.0267 7.72688 15.8279C7.85018 15.629 7.91595 15.3953 7.91587 15.1561C7.91554 14.8357 7.79716 14.5284 7.5867 14.3019C7.37624 14.0753 7.09091 13.9479 6.79333 13.9477Z" fill="white"/>
<path d="M12.7743 17.6848C12.3099 17.6848 11.856 17.5365 11.4698 17.2586C11.0837 16.9808 10.7828 16.5859 10.605 16.1238C10.4273 15.6618 10.3808 15.1533 10.4714 14.6628C10.562 14.1723 10.7857 13.7217 11.114 13.3681C11.4424 13.0145 11.8608 12.7736 12.3163 12.6761C12.7717 12.5785 13.2438 12.6286 13.6729 12.82C14.1019 13.0114 14.4686 13.3355 14.7266 13.7513C14.9847 14.1671 15.1224 14.656 15.1224 15.1561C15.1217 15.8266 14.8741 16.4693 14.4339 16.9434C13.9937 17.4175 13.3969 17.6841 12.7743 17.6848ZM12.7743 13.9477C12.5523 13.9477 12.3353 14.0186 12.1506 14.1514C11.966 14.2843 11.8222 14.4731 11.7372 14.6941C11.6523 14.915 11.63 15.1581 11.6734 15.3926C11.7167 15.6271 11.8237 15.8425 11.9807 16.0116C12.1378 16.1806 12.3378 16.2957 12.5556 16.3423C12.7734 16.3889 12.9991 16.3649 13.2042 16.2733C13.4093 16.1818 13.5846 16.0267 13.7079 15.8279C13.8312 15.629 13.897 15.3953 13.8969 15.1561C13.8966 14.8357 13.7782 14.5284 13.5677 14.3019C13.3573 14.0753 13.0719 13.9479 12.7743 13.9477Z" fill="white"/>
<path d="M4.18216 5.16861C4.05354 5.1686 3.92819 5.125 3.82386 5.04399C3.71953 4.96298 3.64152 4.84867 3.60088 4.71726L2.55064 1.31976H0.612741C0.450232 1.31976 0.294379 1.25024 0.179468 1.12648C0.0645565 1.00273 0 0.83489 0 0.659879C0 0.484868 0.0645565 0.317026 0.179468 0.193274C0.294379 0.0695228 0.450232 0 0.612741 0H2.99426C3.12288 1.28159e-05 3.24823 0.0436124 3.35256 0.124621C3.45689 0.205631 3.5349 0.319941 3.57555 0.451357L4.76549 4.30021C4.79617 4.3994 4.80452 4.50501 4.78987 4.60835C4.77521 4.7117 4.73797 4.80981 4.6812 4.89461C4.62444 4.97942 4.54978 5.04848 4.46337 5.09612C4.37696 5.14376 4.28128 5.16861 4.1842 5.16861H4.18216Z" fill="white"/>
</svg>

<svg xmlns="http://www.w3.org/2000/svg" width="16" height="18" fill="none"><path fill="#fff" d="M13.974 11.79h-8.38a.586.586 0 0 1-.383-.144.668.668 0 0 1-.215-.37l-1.411-6.62a.71.71 0 0 1 .118-.558.623.623 0 0 1 .213-.184.577.577 0 0 1 .266-.065h11.204c.092 0 .183.022.266.065a.623.623 0 0 1 .214.183.712.712 0 0 1 .118.56l-1.413 6.62a.668.668 0 0 1-.215.369.586.586 0 0 1-.382.144Zm-7.892-1.32h7.404l1.13-5.3H4.951l1.13 5.3ZM6.793 17.685a2.23 2.23 0 0 1-1.304-.426 2.497 2.497 0 0 1-.865-1.135 2.71 2.71 0 0 1-.134-1.461c.091-.49.315-.941.643-1.295a2.301 2.301 0 0 1 1.202-.692 2.192 2.192 0 0 1 1.357.144c.429.191.796.515 1.054.931.258.416.395.905.395 1.405 0 .67-.248 1.313-.688 1.787-.44.474-1.037.741-1.66.742Zm0-3.737c-.222 0-.439.07-.623.203a1.194 1.194 0 0 0-.414.543c-.085.221-.107.464-.064.699.044.234.15.45.308.619a1.1 1.1 0 0 0 .575.33c.217.047.443.023.648-.069.205-.091.38-.246.504-.445.123-.199.189-.433.189-.672 0-.32-.119-.628-.33-.854a1.084 1.084 0 0 0-.793-.354ZM12.774 17.685a2.23 2.23 0 0 1-1.304-.426 2.498 2.498 0 0 1-.865-1.135 2.71 2.71 0 0 1-.134-1.461c.091-.49.315-.941.643-1.295a2.301 2.301 0 0 1 1.202-.692 2.192 2.192 0 0 1 1.357.144c.429.191.796.515 1.054.931.258.416.395.905.395 1.405 0 .67-.248 1.313-.688 1.787-.44.474-1.037.741-1.66.742Zm0-3.737c-.222 0-.439.07-.623.203a1.195 1.195 0 0 0-.414.543c-.085.221-.107.464-.064.699.044.234.15.45.308.619a1.1 1.1 0 0 0 .575.33c.217.047.443.023.648-.069.205-.091.38-.246.504-.445.123-.199.189-.433.189-.672 0-.32-.119-.628-.33-.854a1.084 1.084 0 0 0-.793-.354Z"/><path fill="#fff" d="M4.182 5.169a.584.584 0 0 1-.358-.125.659.659 0 0 1-.223-.327L2.55 1.32H.613a.591.591 0 0 1-.434-.194A.686.686 0 0 1 0 .66C0 .485.065.317.18.193A.591.591 0 0 1 .612 0h2.381c.129 0 .254.044.359.125a.659.659 0 0 1 .223.326l1.19 3.85a.708.708 0 0 1-.085.594.628.628 0 0 1-.218.201.577.577 0 0 1-.279.073h-.002Z"/></svg>
